X:1
T:Nocturne No. 10
T:Nocturne No. 10
T:John Field
C:John Field
%%score { ( 1 4 ) | ( 2 3 5 ) }
L:1/8
Q:1/4=84
M:12/8
K:G
V:1 treble nm="Piano" snm="Pno."
V:4 treble 
V:2 bass 
V:3 bass 
V:5 bass 
V:1
"^Adagio"!mp! e6 B3 g3 | ^d3!p! e6 e3 |!mp! c'6 f3 a3 | c3 B6 !>!b3 | g3!>(! f3 B3 ^d3 | %5
[Q:1/4=76] e3!>)!!p! G3/2xF/ E3 B3/2xd/ |[Q:1/4=84] e6 B3 g3 | f3!<(! e3- e2 f g2 ^g!<)! | %8
!mf! a6 d3 c'3 | ^g3!p! a6!mf! a3 | !fermata!d'3 e3 =g3[Q:1/4=76] b2"_dim." a | %11
 g3 gfe[Q:1/4=84] d z z d z ^d | %12
!mp! e3-!<(! e/f/e/^d/e/a/ !invertedturn!g3!<)!!mf!!>(! !fermata!b2!mp![Q:1/4=74] a!>)! | %13
 g3[Q:1/4=84] d3/2xd/- d2 x d3/2xd/- | %14
 d2 d z z d z!p!!>(! d/_e/!pp!d!>)! z!pp!!>(! d/=e/!pp!d!>)! | %15
 z!p!!<(! d/!<)!!p!_e/!>(!d/!>)!!p!=e/ z!pp!!<(! d/!<)!!p!_e/!>(!d/!pp!=e/!>)![Q:1/4=96]!<(! d/_e/d/^g/b/!<)!!p!a/!>(! c'/b/d'/[Q:1/4=84]c'/g/!>)!!pp!a/ | %16
!p! d=gf ec'g b2 c'{/b} a2- a/>g/ | g6 =f3 e3 | ^d3 e3 ^f3 e3 | B3 b3/2xb/ b3!pp!!8va(! b'3/2xb'/ | %20
[Q:1/4=72]"^riten." b'3!8va)!!p!"_cresc." c3/2zB/ B3 B3 |!mf![Q:1/4=84]"^a tempo" e6 B3 g3 | %22
!>(! f3!>)!!mp! e6 e3 |!>(! c'3!>)!!p! bag f!<(!e^d =d7/4xc/4!<)! | %24
!mp! c2!p! B-!p! B/4c/4B/4^A/4"_cresc."B/4^c/4^d/4e/4f/4g/4=a/4b/4!mf!!>(! =c'3 b^a=a!>)! | %25
!mp! ^g2 =g"_dim." fgf B3 T^d2 ^c/d/ | e3 B2 B B3 B2!pp! B | B3!<(! =d=cA G3!<)!!p! e!>(!dA | %28
 B2!>)! z!pp! B2 B B3 B2 B | Bc/B/^A/B/ g2 f B3 T^d2 ^c/d/ | %30
 !fermata!e3!<(! B/=c/B/[Q:1/4=96]^A/B/^c/ ^d/e/f/g/!<)!!mf![Q:1/4=84]=a/!>(!g/ f/e/!>)!!mp!d/[Q:1/4=96]!<(!e/f/g/ | %31
 a/b/^c'/^d'/e'/!<)!!mf!b/!>(! =c'/b/[Q:1/4=84]a/g/f/e/!>)!!p! g3 f2 g | %32
 !fermata!e3!pp!!8va(! b/=c'/b/[Q:1/4=96]^a/b/^c'/ ^d'/e'/f'/g'/[Q:1/4=84]=a'/g'/!<(! f'/e'/d'/[Q:1/4=96]e'/f'/g'/ | %33
 a'/b'/^c''/^d''/e''/d''/!<)!!mf! =d''/^c''/!>(!=c''/b'/^a'/=a'/ ^g'/=g'/f'/[Q:1/4=84]e'/^d'/=d'/ ^c'/=c'/b/^a/=a/!>)!!p!^g/!8va)! | %34
[Q:1/4=78]"_calando"!>(! =g/f/e/^d/=d/=c/[Q:1/4=72] B/^A/=A/[Q:1/4=60]=G/F/E/!>)!!pp![Q:1/4=76] B,3 ^D3 | %35
[Q:1/4=60]"^a tempo" E3!p!{FGA} G2!pp!"_dim." F E3[Q:1/4=50]"^riten." B,2 [A,^D] | %36
 [G,E]3[Q:1/4=40] [^G,=D]2 [A,C]!ppp! [=G,B,]6 |] %37
V:2
!pp!!ped! G,B,E G,B,E G,B,E G,B,E!ped-up! |!ped! G,B,E!ped-up!!ped! G,B,E G,B,E G,B,E!ped-up! | %2
!ped! A,CF A,CF A,CF A,CF!ped-up! |!ped! A,B,F!ped-up!!ped! A,B,F A,B,F A,B,F!ped-up! | %4
!ped! E,B,E!ped-up!!ped! A,,A,C!ped-up!!ped! B,,G,B,!ped-up!!ped! F,A,B,!ped-up! | %5
!ped! G,B,E!ped-up!!ped! G,B,E!ped-up!!ped! G,B,E!ped! z B, x!ped-up! | %6
!pp!!ped! G,B,E G,B,E G,B,E!ped-up! G,B,E | %7
!ped! G,B,E!ped-up!!ped!!<(! G,B,E!ped-up!!ped! _B,^CE B,CE!ped-up!!<)! | %8
!p!!ped! A,=CD A,CD A,CD A,CD!ped-up! |!ped! D,F,A,!ped-up!!ped! D,F,A, D,F,A, D,F,A,!ped-up! | %10
!ped! D,G,B,!ped-up!!ped! ^C,A,E!ped-up!!ped! D,B,D!ped-up!!ped! F,=C!>(!D!ped-up! | %11
!ped! G,B,E!ped-up!!ped! G,CE!ped-up!!ped! CDA!ped-up!!ped! B,DG!ped-up!!>)! | %12
!pp!!ped! C,^G,B,!ped-up!!ped! A,CE!ped-up!!ped! D,B,D!ped-up!!ped! F,CD!ped-up! | %13
!ped! B,DG B,DG!ped-up!!ped! CDA CDA!ped-up! |!ped! B,DG B,DG!pp!!ped-up!!ped! CDA CDA!ped-up! | %15
!ped! B,DG B,DG!ped-up!!ped! CDA CDA!ped-up! | %16
!pp!!ped! B,DG!ped-up!!ped! C,CE!ped-up!!ped! G,B,D F,CD!ped-up! | %17
[K:treble]!ped! B,DG B,DG!ped-up!!ped! C=FA!ped-up!!ped! ^CEG | %18
!ped! ^DFA!ped-up!!ped! =CEG!ped-up!!ped! A,CA!ped-up!!ped! ^A,^CG!ped-up! | %19
!ped! B,^DF B,DF!ped-up!!ped! B,EG!pp! B,EG!ped-up! | %20
!ped! B,^DF!<(! A,DF[K:bass] G,B,E F,B,^D!ped-up!!<)! | %21
!p!!ped! G,B,E!ped-up! G,B,E!ped-up!!ped! G,B,E G,B,E | %22
!ped! G,CE G,CE!ped-up!!ped! G,B,E G,B,E!ped-up! | %23
!ped! A,,CE!pp!!ped-up!!ped! F,CE!ped-up!!ped! A,!<(!CE!ped-up!!ped! F,A,E!ped-up!!<)! | %24
!p!!ped! A,B,!pp!F!<(!!ped-up!!ped! A,B,F!<)!!p!!>(! A,B,F A,B,F!ped-up!!>)! | %25
!pp!!ped! E,B,E!ped-up!!ped!!>(! A,,A,C!ped-up!!ped! B,,G,B,!ped-up!!ped! F,A,B,!ped-up! | %26
!ped! G,B,E G,B,E!ped-up!!ped! A,B,F A,B,!>)!!pp!F!ped-up! | %27
!ped! G,B,E!ped-up!!ped! C,CD!ped-up!!ped! D,B,D!ped-up!!ped! A,CD!ped-up! | %28
!ped! G,B,D G,B,D!ped-up!!ped! A,B,^D A,B,D!ped-up! | %29
!ped! G,B,E!ped-up!!ped! A,,A,C!ped-up!!ped! B,,G,B,!ped-up!!ped! F,A,B,!ped-up! | %30
 [E,G,]3 z2 z z6 | z6!pp!!ped! E,G,B,!ped-up!!ped! ^D,A,B,!ped-up! | [E,G,]3 z2 z z6 | z12 | %34
 z6!ped! B,,E,G,!ped-up!!ped! B,,F,A,!ped-up! | [E,G,]3 z2 z z2 z{F,G,A,} G,2 F, | %36
 E,3 [E,,E,]3 [E,,E,]6 |] %37
V:3
 E,12 | E,12 | E,12 | [^D,F,]12 | !>!E,3 !>!A,,3 !>!B,,6 | !>!E,6 E,3 G,3/2xF,/ | E,12 | E,6 x6 | %8
 x12 | C,6- C,3 C,3 | B,,3 ^C,3 D,6 | E,6 F,3 G,3 | !>!C,6 !>!D,6 | !>!G,6 !>!F,6 | !>!G,6 !>!F,6 | %15
 !>!G,6 !>!F,6 | !>!G,3 !>!C,3 !>!D,6 |[K:treble] !>!G,6 !>!A,3 !>!^A,3 | %18
 !>!B,3 !>!C3 !>!A,3 !>!^A,3 | !>!B,6 !>!B,6 | !>!B,3 !>!A,3[K:bass] !>!G,3 !>!F,3 | %21
 !>!E,6 !>!D,6 | !>!C,6 !>!B,,6 | x12 | [^D,F,]6 [D,F,]6 | !>!E,3 !>!A,,3 !>!B,,6 | %26
 !>!E,6 [^D,F,]6 | !>!E,3 !>!C,3 !>!D,6 | !>!G,6 !>!F,6 | !>!E,3 !>!A,,3 !>!B,,6 | x12 | x6 B,,6 | %32
 x12 | x12 | x12 | x12 | x12 |] %37
V:4
 x12 | x8 x2 x!<(! f/4e/4^d/4e/4!<)! | x12 | x12 | x12 | x2 (3F/G/A/ x x8 | x12 | x12 | x12 | %9
 x8 x2 x b/4a/4^g/4a/4 | x12 | x12 | x12 | x12 | x12 | x12 | x12 | x12 | x12 | x9!8va(! x3 | %20
 x3!8va)! x9 | x12 | x8 x2 x f/4e/4^d/4e/4 | x12 | x12 | x12 | x12 | x8 x/ F/- F3 | G2 x2 x8 | %29
 x12 | x12 | x12 | x3!8va(! x9 | x12!8va)! | x12 | x12 | x12 |] %37
V:5
 x12 | x12 | x12 | x12 | x12 | x4 x2 x x x/4!mp! F,/4G,/4A,/4 x x2 | x12 | x12 | x12 | x12 | x12 | %11
 x12 | x12 | x12 | x12 | x12 | x12 |[K:treble] x12 | x12 | x12 | x6[K:bass] x6 | x12 | x12 | x12 | %24
 x12 | x12 | x12 | x12 | x12 | x12 | x12 | x12 | x12 | x12 | x12 | x12 | x12 |] %37

